X: 5
T: Zhen hunhun genzai ni houtou
L: 1/8
M: 4/8
K: Eb
c Bc2- [I:setbarnb 1]| 
[M:5/8]c e B G F | 
[M:4/8]G2c E | 
F4 | 
c Bc2- | 
[M:5/8]c e B G F | 
[M:4/8]G E B, G, | 
B,4 |]

@@@ Tune index: 8879
